X: 483
T:Leitrim Town
R:slip jig
M:9/8
L:1/8
Z:Gerry Strong
N:Posted to the woodenflute mailing list January 2002
K:Bm
FAA FAd AFD|FAA FAB d2 A|FAA FAd AFD|fgf edc B2 A:|
|:~f3 ~e3 d2 e|~f3 def gfe|~f3 ~e3 d2 A|BAF DFA B2 A:|

